X:1
T:Title
%%score ( 1 2 ) 3
L:1/8
Q:1/4=95
M:3/8
K:Bb
V:1 treble nm="Grand Piano, Soprano"
V:2 treble 
V:3 bass nm="Choir Pad, Cárdenas, C Converse 1863"
V:1
 [DF]2 [B,D] | [DF][DB][CA] | [Ec]2 [DB] | [Fd]2 [DF] | [EG]2 [EG] | [EG][GB][EG] | [DF]2 [DB] | %7
w: By~Charles~Crozat~Converse,~1863 *|||||||
 [CA]2 F | [Ac][FA][EG] | [EF]2 [EF] | FB[Fc] | [Fd]3 | [Ee][Fd][Ec] | [EG]2 [GB] | [FA][GB][Ac] | %15
w: ||||||||
 [Bd]3 | [Ge][Fd][Ec] | [EG]2 [GB] | [FA][EG][EA] | [DB]3- | [DB]3- | [DB] z z |] %22
w: |||||||
V:2
 x3 | x3 | x3 | x3 | x3 | x3 | x3 | x3 | x3 | x3 | D2 z | x3 | x3 | x3 | x3 | x3 | x3 | x3 | x3 | %19
 x3 | x3 | x3 |] %22
V:3
 B,,2 B,, | B,,B,,B,, | B,,2 B,, | B,,2 B,, | E,2 E, | E,2 E, | B,,2 B,, | F,2 F, | F,2 G, | %9
 A,2 A, | B,2 A, | B,3 | C,D,E, | E,2 E, | F,2 F, | B,,3 | C,D,E, | E,2 E, | F,2 F, | B,,3- | %20
 B,,3- | B,, z z |] %22

